!!!COM: Franz Schubert
!!!CNT: Deutsch
!!!TXO: Deutsch
!!!OTL: "Erster Verlust"
!!!LYR: Johann Wolfgang von Goethe
!!!OPS: Op. 5
!!!ONM: No. 4
!!!ENC: Ben Fuhrman
!!!YOR: Schubert Lieder - Dietrich Fischer-Dieskau, and Elmar Budde, eds.
!!!YOR: New York: C. F. Peters, Vol. 2
!!!ODT: 1815/
!!NB: Only vocal melody encoded.
!!NB: First instance of melodic material only encoded.
!!NB: Original Key: F minor
**kern
*clef G2
*k[b-]
*M4/4
!!created: 08/07/06 3:10
!!proofed and posted: 08/07/06 3:10
!!edit time: 10 minutes
=1
{4.a
8a
4a
4a
=2
[2cc
8cc]
8g
8a
8b
=3
8.b
16a
4a}
4r
{8.f
16f
=4
4dd
8cc
8b
8a
8g
8f#
8g
=5
(4a
4dd)
4c}
4r
=6
{4.b
8b
4.b
8b
=7
4.cc
8cc#
8cc#
8dd
4dd
=8
4dd
4cc
4b
4a
=9
8cc
8b
8g
8a
4f}
4r
=10
{(2b
4a)
4dd
=11
(4dd
8cc#)
8b
(4b
8a)
8g
=12
4g
4f#}
4r
{8f#
8f#
=13
4.g
8g
(8b
8dd
16cc
16b)
16a
16g
=14
8.f
16e
4e}
4r
{4b
=15
4a
8g
8f
8e
8d
8f
8d
=16
2A}
2r
=17
{4.a
8a
4a
4a
=18
[2cc
8cc]
8g
8a
8b
=19
8.b
16a
4a}
4r
{4a
=20
4dd
4cc
4b
4a
=21
8cc
8b
8g
8a
4f}
4r
==
*-
